X:1
T:Too Much of a Good Thing
M:6/8
L:1/8
K:F
 C| F2 F F2 A| c3/2 d/2 cA-G F| G2 GE-D C| D3 z2 E| F2 F F2 A| c2 cA-G F|\
 B2 BB-c d| c3 z2 A| B2 B Bcd| c2 cA-G F| D2 DB-c A| G3 C2 C| F2 F GAB|\
 cdcA-G F| GGA F2 E| F3 z2||

